packages/core/src/svgs/tokens/branded/KICKS.svg

<svg width="24" height="24" viewBox="0 0 24 24" fill="none" xmlns="http://www.w3.org/2000/svg">
<path d="M7.44804 9.04788L7.65238 8.3044H4.51325C4.19209 8.30273 3.88022 8.41222 3.63059 8.61431C3.38095 8.81639 3.20892 9.09862 3.14369 9.4131L2.88717 10.687C2.86142 10.821 2.86574 10.9591 2.89982 11.0911C2.9339 11.2233 2.99689 11.3462 3.08425 11.4511C3.1716 11.5559 3.28113 11.64 3.40495 11.6973C3.52876 11.7547 3.66377 11.7838 3.80021 11.7826H6.75238L7.21759 10.0435H5.95673L5.72629 10.6957H4.60456C4.56452 10.6968 4.52477 10.6887 4.48837 10.672C4.45198 10.6552 4.41993 10.6304 4.3947 10.5992C4.36948 10.5681 4.35176 10.5316 4.34291 10.4926C4.33406 10.4535 4.33433 10.4129 4.34369 10.374L4.54369 9.58701C4.55835 9.5292 4.59207 9.47802 4.63941 9.44173C4.68673 9.40544 4.74492 9.38616 4.80455 9.38702H6.99586C7.2089 9.38702 7.39151 9.24788 7.44804 9.04788ZM13.0959 13.3957L13.3046 12.6522H10.6089C10.2867 12.6502 9.97358 12.7594 9.72249 12.9614C9.47141 13.1633 9.29769 13.4458 9.23064 13.7609L8.97411 15.0349C8.94829 15.1692 8.9527 15.3077 8.98702 15.4401C9.02135 15.5726 9.08474 15.6956 9.17257 15.8006C9.2604 15.9055 9.3705 15.9895 9.49484 16.0465C9.61922 16.1036 9.75465 16.1322 9.89151 16.1305H12.5698L12.8045 15.0435H10.6959C10.6558 15.0446 10.6161 15.0365 10.5796 15.0198C10.5433 15.003 10.5113 14.9782 10.486 14.947C10.4607 14.916 10.4431 14.8795 10.4342 14.8404C10.4253 14.8013 10.4256 14.7608 10.435 14.7218L10.6393 13.9349C10.654 13.877 10.6877 13.8258 10.7351 13.7896C10.7823 13.7533 10.8406 13.734 10.9002 13.7348H12.6394C12.8568 13.7348 13.0394 13.5957 13.0915 13.3957H13.0959Z" fill="url(#paint0_linear_364_8240)"/>
<path fill-rule="evenodd" clip-rule="evenodd" d="M7.9216 9.41276C7.99522 9.09361 8.17614 8.8094 8.43411 8.6076C8.6921 8.40581 9.01151 8.29866 9.33899 8.30406H10.9346C11.5433 8.30406 11.9999 8.83449 11.8825 9.39971L11.652 10.478H9.17377C9.11612 10.478 9.06083 10.5009 9.02005 10.5416C8.97928 10.5824 8.95638 10.6377 8.95638 10.6954C8.95638 10.753 8.97928 10.8083 9.02005 10.8491C9.06083 10.8898 9.11612 10.9128 9.17377 10.9128H11.565L11.3868 11.7823H8.68681C8.03465 11.7823 7.54769 11.2171 7.67377 10.6084L7.9216 9.41276ZM9.39117 9.39101C9.39117 9.26928 9.48682 9.17362 9.6086 9.17362H10.4781C10.5357 9.17362 10.591 9.19653 10.6318 9.23729C10.6726 9.27806 10.6955 9.33336 10.6955 9.39101C10.6955 9.44867 10.6726 9.50396 10.6318 9.54473C10.591 9.5855 10.5357 9.6084 10.4781 9.6084H9.6086C9.55088 9.6084 9.49561 9.5855 9.45483 9.54473C9.41407 9.50396 9.39117 9.44867 9.39117 9.39101Z" fill="url(#paint1_linear_364_8240)"/>
<path d="M12.8696 9.39115L12.5521 10.9999C12.5329 11.0942 12.5348 11.1917 12.5577 11.2854C12.5805 11.3789 12.624 11.4663 12.6846 11.5411C12.7453 11.616 12.8219 11.6765 12.9087 11.7182C12.9956 11.7598 13.0906 11.7819 13.1869 11.7825H15.187L15.4782 10.6955H13.9565L14.2435 9.39115H14.5174C14.8869 9.39115 15.3348 9.05203 15.4086 8.68246L15.4782 8.30421H14.4435L14.5391 7.86942H13.1479L13.0608 8.30421H12.6261L12.4348 9.39115H12.8696ZM7.53043 12.652H8.95651L8.20869 16.1303H6.7826L7.53043 12.652ZM15.0304 13.5955L15.2131 12.652H13.9173L13.2348 16.1303H14.5304L14.6782 15.3911L15.113 14.9477L15.8956 16.1303H17.3913L16.1217 14.1607L17.6522 12.652C16.6956 12.6738 15.7739 13.0042 15.0304 13.5955ZM2.68261 12.652H3.9826L3.72173 13.9563H4.13477L5.42174 12.652H6.80434L5.29129 14.4259L6.34782 16.1303H5.86521C5.20434 15.8607 4.34348 15.339 4.14348 14.5564C4.04347 14.5781 3.81304 14.6346 3.65652 14.6868C3.57391 14.7129 3.5 14.7607 3.43478 14.8042C3.33913 14.8694 3.26087 14.9216 3.2 14.8825C3.12173 14.8303 3.0826 14.6868 3.06956 14.6216C3.15652 14.665 3.33913 14.739 3.36521 14.6868C3.39565 14.6216 3.33043 14.3563 3.06956 14.3563C2.80869 14.3563 2.67826 14.7868 2.67826 15.1476C2.67826 15.5085 2.93913 15.6042 3.06956 15.6042H3.09565C3.27391 15.6042 3.92608 15.5955 4.13913 16.0302L4.0739 16.0042C3.91304 15.9346 3.66522 15.8303 3.3 15.8042C3.08838 15.7954 2.87972 15.7513 2.68261 15.6738C2.73478 15.7607 2.8913 15.9346 3.07391 15.9346C3.27391 15.9346 3.66086 15.9608 3.85652 16.1303H2L2.68261 12.652ZM21.9131 13.1042L22 12.652H19.2086C18.9093 12.6554 18.6233 12.7772 18.4132 12.9905C18.2031 13.2039 18.0858 13.4917 18.0869 13.7912V14.0303C18.0869 14.4303 18.3913 14.7694 18.7739 14.8259L20.5391 15.0955H18.4217C18.0739 15.0955 17.7696 15.3563 17.7173 15.7129L17.6522 16.1303H20.6044C21.1522 16.1303 21.5043 15.6911 21.5391 15.1303L21.5652 14.7172C21.5913 14.3173 21.3913 13.9694 21 13.9477L19.6434 13.8608C19.6219 13.8585 19.6019 13.8485 19.5875 13.8324C19.573 13.8163 19.5651 13.7954 19.5652 13.7737C19.5652 13.7303 19.6043 13.6868 19.6522 13.6868H21.226C21.5608 13.6868 21.8522 13.4433 21.9173 13.1042H21.9131Z" fill="url(#paint2_linear_364_8240)"/>
<defs>
<linearGradient id="paint0_linear_364_8240" x1="8.08758" y1="8.30439" x2="8.08758" y2="16.1305" gradientUnits="userSpaceOnUse">
<stop stop-color="#FF5959"/>
<stop offset="1" stop-color="#E72324"/>
</linearGradient>
<linearGradient id="paint1_linear_364_8240" x1="9.77741" y1="8.30387" x2="9.77741" y2="11.7823" gradientUnits="userSpaceOnUse">
<stop stop-color="#FF5959"/>
<stop offset="1" stop-color="#E72324"/>
</linearGradient>
<linearGradient id="paint2_linear_364_8240" x1="12" y1="7.86942" x2="12" y2="16.1303" gradientUnits="userSpaceOnUse">
<stop stop-color="#FF5959"/>
<stop offset="1" stop-color="#E72324"/>
</linearGradient>
</defs>
</svg>

<svg xmlns="http://www.w3.org/2000/svg" width="24" height="24" fill="none" viewBox="0 0 24 24">
    <path fill="url(#KICKS__a)" d="m7.448 9.048.204-.744H4.513a1.39 1.39 0 0 0-1.37 1.11l-.256 1.273a.92.92 0 0 0 .913 1.096h2.952l.466-1.74H5.957l-.23.653H4.604a.26.26 0 0 1-.261-.322l.2-.787a.265.265 0 0 1 .26-.2h2.192c.213 0 .396-.14.452-.34m5.648 4.348.209-.744h-2.696A1.4 1.4 0 0 0 9.23 13.76l-.257 1.274a.922.922 0 0 0 .918 1.096h2.678l.235-1.088h-2.11a.26.26 0 0 1-.26-.203.3.3 0 0 1 0-.118l.204-.787a.265.265 0 0 1 .261-.2h1.74c.217 0 .4-.14.451-.34z"/>
    <path fill="url(#KICKS__b)" fill-rule="evenodd" d="M7.922 9.413a1.43 1.43 0 0 1 1.417-1.109h1.596c.608 0 1.065.53.947 1.096l-.23 1.078H9.174a.218.218 0 0 0 0 .435h2.391l-.178.87h-2.7c-.652 0-1.14-.566-1.013-1.175zm1.47-.022c0-.122.095-.217.217-.217h.87a.218.218 0 0 1 0 .434h-.87a.217.217 0 0 1-.218-.217" clip-rule="evenodd"/>
    <path fill="url(#KICKS__c)" d="M12.87 9.391 12.552 11a.653.653 0 0 0 .635.783h2l.291-1.088h-1.521l.286-1.304h.274c.37 0 .818-.339.892-.709l.07-.378h-1.035l.095-.435h-1.391l-.087.435h-.435l-.191 1.087zm-5.34 3.261h1.427l-.748 3.478H6.783zm7.5.944.183-.944h-1.296l-.682 3.478h1.295l.148-.739.435-.443.783 1.182h1.495l-1.27-1.97 1.531-1.508a4.37 4.37 0 0 0-2.622.944m-12.347-.944h1.3l-.261 1.304h.413l1.287-1.304h1.382l-1.513 1.774 1.057 1.704h-.483c-.66-.27-1.522-.791-1.722-1.574-.1.022-.33.079-.486.13a1 1 0 0 0-.222.118c-.096.065-.174.118-.235.079-.078-.053-.117-.196-.13-.261.087.043.27.117.295.065.03-.065-.035-.33-.295-.33-.261 0-.392.43-.392.79s.261.457.392.457h.026c.178 0 .83-.008 1.043.426l-.065-.026a2.2 2.2 0 0 0-.774-.2 1.9 1.9 0 0 1-.617-.13c.052.087.208.26.39.26.2 0 .588.027.784.196H2zm19.23.452.087-.452h-2.791a1.135 1.135 0 0 0-1.122 1.14v.238c0 .4.304.74.687.796l1.765.27h-2.117a.72.72 0 0 0-.705.617l-.065.417h2.952c.548 0 .9-.439.935-1l.026-.413c.026-.4-.174-.748-.565-.77l-1.357-.086a.09.09 0 0 1-.078-.087.09.09 0 0 1 .087-.087h1.574a.71.71 0 0 0 .691-.583z"/>
    <defs>
        <linearGradient id="KICKS__a" x1="8.088" x2="8.088" y1="8.304" y2="16.131" gradientUnits="userSpaceOnUse">
            <stop stop-color="#FF5959"/>
            <stop offset="1" stop-color="#E72324"/>
        </linearGradient>
        <linearGradient id="KICKS__b" x1="9.777" x2="9.777" y1="8.304" y2="11.782" gradientUnits="userSpaceOnUse">
            <stop stop-color="#FF5959"/>
            <stop offset="1" stop-color="#E72324"/>
        </linearGradient>
        <linearGradient id="KICKS__c" x1="12" x2="12" y1="7.869" y2="16.13" gradientUnits="userSpaceOnUse">
            <stop stop-color="#FF5959"/>
            <stop offset="1" stop-color="#E72324"/>
        </linearGradient>
    </defs>
</svg>
